!!!OTL: 'T Seche vun der ro'der G&auml;&szlig; (1-22), S. 59f
!!!id: K0096
**kern
*clefG2
*k[f#]
*G:
{8d
=1
8g
8g
8b
8b
=2
8dd
8dd
8.b
16b
=3
8cc
8cc
8.a
16a
=4
8b
8b}
8r
=5
{8d
=6
8g
8g
8b
8b
=7
8dd
8dd
8.b
16b
=8
8cc
8cc
8.a
16a
=9
8b
8b}
8r
=10
{8g
=11
8.g
16f#
8e
8g
=12
8.g
16f#
8.e
16a
=13
8.a
16a
8a
8a
=14
8.a
16d
8d}
=15
{8g
=16
4.g
8b
=17
4.b
8dd
=18
4.dd}
=19
{8dd
=20
8.dd
16cc
8cc
8ee
=21
8.ee
16dd
8dd}
=22
{8g
=23
4.g
8b
=24
4.b
8dd
=25
4.dd}
=26
{8dd
=27
8.dd
16cc
8cc
8cc
=28
4b}
8r
=29
{8g
=30
4.g
8b
=31
4.b
8dd
=32
4.dd}
=33
{8dd
=34
8.dd
16cc
8cc
8ee
=35
8.ee
16dd
8dd}
=36
{8g
=37
4.g
8b
=38
4.b
8dd
=39
4.dd}
=40
{8dd
=41
8.dd
16cc
8cc
8cc
=42
4b}
8r
==
*-
!!!minrhy: 16
!!!meters: 2/4 ]  ZZ[11
!!!cut: 'T Seche vun der ro'der G&auml;&szlig; (1-22), S. 59f
!!!reg: Luxemburg
!!!trd: KINTZELE, Guillaume: An der Ucht, Bd. 1, Luxemburg 1926
!!!rhy1: X_  X_X_X_X_  X_X_X_.X  X_X_X_.X  X_X_0_
!!!rhy2: X_  X_X_X_X_  X_X_X_.X  X_X_X_.X  X_X_0_
!!!key: K0096  16  G 2/4 ]  ZZ[11
!!!mod: HEPTATONIK IONISCH]  AMBITUS[9
!!!kad: 33-555535553
!!!akz: 1543_1543_1122_135_56_135_53_135_56_135_53_
!!!fot: 'a__a__b__c__d__c__dw_c__d__c__dw_
!!!for: 'a__a__b__c__bw_c__bw_c__bw_c__bw_
!!!fok: '^a_^a_\__/__-__/__\__/__-__/__\__
!! PHRAS[AUFTAKTIG]
!!!fkt: ???
!!!bem: in der Quelle mit einer 2. Stimme versehen
!! KINTZELE
!! PR[19] 2K[7] 2G[20] 3K[5] 3G[7] 4A[1] 4Ü[0] 5A[0] 6K[0] 6G[0]
!! 7K[0] 7G[0] 8A[0] MEHR[0] SI[40] ABS[75] SR[27] SP[13]
!! ST[23] 2k[12] 2g[23] 3k[0] 3g[7] 4d[0] 4ü[0] 5d[0] 6k[0] 6g[0]
!! 7k[0] 7g[0] 8d[0] mehr[0] si[41] dm[-1] sr[35] sp[7]
!! 1F[40] 2F[51] 3F[0] 4F[0] LF[0] 2P[10] 3P[0] 4P[0] TRI[0] DF[3] AB[81]
!! TF[0] U3K[0] U3[0] U4[0] U4Ü[0] U5[1] U6K[0] U6[0] U7K[0] U7[1]
!! N1[14] N2K[0] N2[17] N3K[0] N3[32] N4[17] N4Ü[0] N5[16] N6K[0] N6[1]
!!!n7k: 0] N7[0] O1[0] O2K[0] O2[0] O3K[0] O3[0] HÖ[0
!!!RNB: symbol: &szlig; = sz ligature (UTF-8: ÃŸ)
!!!RNB: symbol: &auml;      = a umlaut  (UTF-8: Å„)
